X: 1
T: Lady Erskine's Reel
C: D.McLaren
R: reel
Z: John Chambers <jc:trillian.mit.edu>
M: C|
L: 1/8
K: Ador
E | "Am"A2AB c2BA | "G"Bdgd BGGB | "Am"A2AB cdea | "Em"gegB "Am"A2-A :|
e | "Am"abag ega2 | "G"gage deg2 | "Am"abag efge |  "G"dBgB "Am"A2-A ||
e | "Am"abag ega2 | "G"gage deg2 | "Am"aabg afge |  "G"dBgB "Am"A2-A |]
